svgs/light/file-shield.svg

<svg xmlns="http://www.w3.org/2000/svg" viewBox="0 0 576 512"><!--! Font Awesome Pro 6.5.1 by @fontawesome - https://fontawesome.com License - https://fontawesome.com/license (Commercial License) Copyright 2023 Fonticons, Inc. --><path d="M320 480c1.3 0 2.6-.1 3.9-.2c7.9 8.6 16.6 16.9 26.3 24.7c-9 4.8-19.3 7.6-30.2 7.6H64c-35.3 0-64-28.7-64-64V64C0 28.7 28.7 0 64 0H220.1c12.7 0 24.9 5.1 33.9 14.1L369.9 129.9c9 9 14.1 21.2 14.1 33.9V207l-32 12.8V192H240c-26.5 0-48-21.5-48-48V32H64C46.3 32 32 46.3 32 64V448c0 17.7 14.3 32 32 32H320zm31.5-320c-.7-2.8-2.1-5.4-4.2-7.4L231.4 36.7c-2.1-2.1-4.6-3.5-7.4-4.2V144c0 8.8 7.2 16 16 16H351.5zM320.1 301.4c1.3 53 22.6 129.5 95.9 170V263l-95.9 38.4zm223.9 0L448 263V471.4c73.4-40.5 94.6-117.1 95.9-170zm-103-75.7l120 48C570 277.4 576 286.2 576 296c0 63.3-25.9 168.8-134.8 214.2c-5.9 2.5-12.6 2.5-18.5 0C313.9 464.8 288 359.3 288 296c0-9.8 6-18.6 15.1-22.3l120-48c5.7-2.3 12.1-2.3 17.8 0z"/></svg>

<svg xmlns="http://www.w3.org/2000/svg" viewBox="0 0 576 512"><!--! Font Awesome Pro 6.1.1 by @fontawesome - https://fontawesome.com License - https://fontawesome.com/license (Commercial License) Copyright 2022 Fonticons, Inc. --><path d="M320 480C321.3 480 322.6 479.9 323.9 479.8C331.8 488.4 340.5 496.7 350.2 504.4C341.2 509.3 330.9 512 320 512H64C28.65 512 0 483.3 0 448V64C0 28.65 28.65 0 64 0H220.1C232.8 0 245.1 5.057 254.1 14.06L369.9 129.9C378.9 138.9 384 151.2 384 163.9V207L352 219.8V192H240C213.5 192 192 170.5 192 144V32H64C46.33 32 32 46.33 32 64V448C32 465.7 46.33 480 64 480H320zM347.3 152.6L231.4 36.69C229.4 34.62 226.8 33.18 223.1 32.48V144C223.1 152.8 231.2 160 239.1 160H351.5C350.8 157.2 349.4 154.6 347.3 152.6zM560.9 273.7C570 277.4 576 286.2 576 296C576 359.3 550.1 464.8 441.2 510.2C435.3 512.6 428.7 512.6 422.8 510.2C313.9 464.8 287.1 359.3 287.1 296C287.1 286.2 293.1 277.4 303.1 273.7L423.1 225.7C428.8 223.4 435.2 223.4 440.9 225.7L560.9 273.7zM416 471.4V263L320.1 301.4C321.4 354.3 342.6 430.9 416 471.4V471.4zM448 263V471.4C521.4 430.9 542.6 354.3 543.9 301.4L448 263z"/></svg>
